public/images/footer/github.svg

<svg width="32" height="32" viewBox="0 0 32 32" fill="none" xmlns="http://www.w3.org/2000/svg">
<path d="M16 3C8.8205 3 3 8.8205 3 16C3 22.1385 7.256 27.28 12.9775 28.643C12.6815 28.5725 12.388 28.4935 12.1 28.4035V25.425C12.1 25.425 11.6125 25.5875 10.9625 25.5875C9.144 25.5875 8.3885 23.965 8.2 23.15C8.0855 22.6535 7.7865 22.183 7.4655 21.8955C7.082 21.5535 6.9025 21.5525 6.9 21.4355C6.895 21.19 7.229 21.2 7.3875 21.2C8.2 21.2 8.816 22.0645 9.102 22.5115C9.8105 23.615 10.571 23.8 10.9625 23.8C11.45 23.8 11.871 23.727 12.161 23.587C12.295 22.643 12.715 21.802 13.4 21.2C10.3515 20.5905 8.2 18.842 8.2 16C8.2 14.536 8.7875 13.1905 9.7665 12.104C9.6665 11.8205 9.5 11.247 9.5 10.3125C9.5 9.695 9.543 8.937 9.825 8.2C9.825 8.2 11.679 8.213 13.4275 9.869C14.2345 9.634 15.098 9.5 16 9.5C16.902 9.5 17.7655 9.634 18.5725 9.869C20.321 8.213 22.175 8.2 22.175 8.2C22.4585 8.937 22.5 9.695 22.5 10.3125C22.5 11.32 22.366 11.9075 22.284 12.161C23.233 13.2375 23.8 14.562 23.8 16C23.8 18.842 21.6485 20.5905 18.6 21.2C19.414 21.915 19.9 22.9565 19.9 24.125V28.4035C19.612 28.494 19.319 28.5725 19.0225 28.643C24.744 27.28 29 22.1385 29 16C29 8.8205 23.1795 3 16 3ZM16.9065 28.965C16.607 28.986 16.305 29 16 29C16.305 29 16.6065 28.9855 16.9065 28.965ZM16 29C15.695 29 15.393 28.986 15.0935 28.965C15.3935 28.9855 15.695 29 16 29ZM14.894 28.95C14.2855 28.8985 13.6885 28.8055 13.107 28.673C13.689 28.805 14.2855 28.8985 14.894 28.95Z" fill="black"/>
</svg>

<svg width="32" height="32" fill="none" xmlns="http://www.w3.org/2000/svg"><path d="M16 3C8.82 3 3 8.82 3 16c0 6.139 4.256 11.28 9.977 12.643-.296-.07-.589-.15-.877-.24v-2.978s-.487.162-1.137.162c-1.819 0-2.574-1.622-2.763-2.437a2.532 2.532 0 0 0-.734-1.255c-.384-.341-.564-.343-.566-.46-.005-.245.329-.235.487-.235.813 0 1.429.864 1.715 1.312.708 1.103 1.469 1.288 1.86 1.288.488 0 .909-.073 1.199-.213.134-.944.554-1.785 1.239-2.387-3.049-.61-5.2-2.358-5.2-5.2 0-1.464.588-2.81 1.567-3.896-.1-.284-.267-.857-.267-1.791 0-.618.043-1.376.325-2.113 0 0 1.854.013 3.603 1.669A9.191 9.191 0 0 1 16 9.5c.902 0 1.765.134 2.573.369C20.32 8.213 22.175 8.2 22.175 8.2c.284.737.325 1.495.325 2.113 0 1.007-.134 1.595-.216 1.848.949 1.077 1.516 2.401 1.516 3.839 0 2.842-2.152 4.59-5.2 5.2.814.715 1.3 1.756 1.3 2.925v4.279c-.288.09-.581.169-.877.239C24.744 27.28 29 22.138 29 16c0-7.18-5.82-13-13-13zm.907 25.965zM16 29zm-1.106-.05z" fill="#000"/></svg>
